static/logos/googleFonts-glyph-color.svg

<svg width="50" height="38" viewBox="0 0 50 38" fill="none" xmlns="http://www.w3.org/2000/svg">
<g clip-path="url(#clip0_1_2566)">
<path d="M0.804688 37.0968L24.1918 0H38.7079V5.16129L18.5466 37.0968" fill="#FBBC04"/>
<path d="M38.7114 37.0968H24.1953V0H38.7114V37.0968Z" fill="#1A73E8"/>
<path d="M49.1948 26.6129C49.1948 32.4031 44.5013 37.0968 38.7109 37.0968V16.129C44.5013 16.129 49.1948 20.8226 49.1948 26.6129Z" fill="#34A853"/>
<path d="M38.7103 37.0968C32.92 37.0968 28.2266 32.4031 28.2266 26.6129C28.2266 20.8226 32.92 16.129 38.7103 16.129V37.0968Z" fill="#0D652D"/>
<path d="M46.7755 8.06445C46.7755 12.5176 43.1658 16.129 38.7109 16.129V0C43.1658 0 46.7755 3.61126 46.7755 8.06445Z" fill="#1A73E8"/>
<path d="M38.7128 16.129C34.258 16.129 30.6484 12.5176 30.6484 8.06445C30.6484 3.61126 34.258 0 38.7128 0V16.129Z" fill="#174EA6"/>
<path d="M1.60938 7.25806C1.60938 3.25 4.85938 0 8.86744 0C12.8755 0 16.1255 3.25 16.1255 7.25806C16.1255 11.2661 12.8755 14.5161 8.86744 14.5161C4.85938 14.5161 1.60938 11.2661 1.60938 7.25806Z" fill="#EA4335"/>
</g>
<defs>
<clipPath id="clip0_1_2566">
<rect width="50" height="37.0968" fill="white"/>
</clipPath>
</defs>
</svg>

<svg xmlns="http://www.w3.org/2000/svg" width="84.211" height="64" fill="none" viewBox="0 0 50 38"><g clip-path="url(#a)"><path fill="#FBBC04" d="M.805 37.097 24.192 0h14.516v5.161L18.547 37.097"/><path fill="#1A73E8" d="M38.711 37.097H24.195V0h14.516v37.097Z"/><path fill="#34A853" d="M49.195 26.613c0 5.79-4.694 10.484-10.484 10.484V16.129c5.79 0 10.484 4.694 10.484 10.484Z"/><path fill="#0D652D" d="M38.71 37.097c-5.79 0-10.483-4.694-10.483-10.484S32.92 16.129 38.71 16.129v20.968Z"/><path fill="#1A73E8" d="M46.776 8.064a8.064 8.064 0 0 1-8.065 8.065V0a8.064 8.064 0 0 1 8.065 8.064Z"/><path fill="#174EA6" d="M38.713 16.129a8.064 8.064 0 1 1 0-16.129v16.129Z"/><path fill="#EA4335" d="M1.61 7.258a7.259 7.259 0 1 1 14.517.001 7.259 7.259 0 0 1-14.518 0Z"/></g><defs><clipPath id="a"><path fill="#fff" d="M0 0h50v37.097H0z"/></clipPath></defs></svg>
